apps/www/public/images/blog/showcase-logo/supabase-logo.svg

<svg xmlns="http://www.w3.org/2000/svg" width="2978" height="628" fill="none" viewBox="0 0 2978 628"><path fill="#1f1f1f" d="M717 390.353c3.036 28.368 28.841 76.998 103.725 76.998 65.27 0 96.641-41.538 96.641-82.063 0-36.473-24.793-66.36-73.873-76.492l-35.418-7.598c-13.661-2.533-22.769-10.131-22.769-22.289 0-14.184 14.168-24.821 31.877-24.821 28.334 0 38.96 18.742 40.984 33.433l56.163-12.664c-3.036-26.848-26.817-71.932-97.653-71.932-53.633 0-93.099 36.979-93.099 81.556 0 34.953 21.757 63.828 69.824 74.465l32.888 7.599c19.227 4.052 26.817 13.171 26.817 24.315 0 13.171-10.625 24.822-32.888 24.822-29.347 0-44.02-18.237-45.538-37.993zM1132.42 459.753h64.26c-1.01-8.612-2.53-25.835-2.53-45.085V210.523h-67.3V355.4c0 28.875-17.2 49.137-47.05 49.137-31.37 0-45.54-22.289-45.54-50.15V210.523h-67.293v157.542c0 54.202 34.403 98.273 94.613 98.273 26.31 0 55.16-10.131 68.82-33.433 0 10.131 1.01 21.782 2.02 26.848M1333.26 556V435.438c12.14 16.716 37.44 30.394 71.85 30.394 70.33 0 117.38-55.723 117.38-131.201 0-73.958-41.99-129.68-114.85-129.68-37.44 0-65.27 16.716-76.4 35.966v-30.394h-65.27V556zm122.95-220.862c0 44.578-27.32 70.412-61.73 70.412-34.4 0-62.23-26.341-62.23-70.412s27.83-69.906 62.23-69.906c34.41 0 61.73 25.835 61.73 69.906M1560.6 391.873c0 39.006 32.38 74.972 85.51 74.972 36.93 0 60.71-17.224 73.36-36.98 0 9.625 1.01 23.302 2.53 29.888h61.73c-1.52-8.612-3.03-26.342-3.03-39.512V297.652c0-50.15-29.35-94.727-108.28-94.727-66.79 0-102.72 43.057-106.76 82.063l59.7 12.664c2.03-21.782 18.22-40.525 47.56-40.525 28.34 0 42 14.69 42 32.42 0 8.612-4.55 15.704-18.72 17.73l-61.22 9.118c-41.49 6.079-74.38 30.9-74.38 75.478m99.67 24.822c-21.75 0-32.38-14.184-32.38-28.874 0-19.25 13.66-28.875 30.87-31.407l56.16-8.612v11.144c0 44.072-26.31 57.749-54.65 57.749M1913.8 459.753v-30.394c13.15 21.276 39.46 36.473 73.87 36.473 70.84 0 117.39-56.229 117.39-131.707 0-73.959-42-130.187-114.86-130.187-36.94 0-64.26 16.21-75.39 33.939V93h-66.28v366.753zm123.96-125.122c0 45.591-27.32 70.919-61.73 70.919-33.9 0-62.23-25.834-62.23-70.919 0-45.591 28.33-70.412 62.23-70.412 34.41 0 61.73 24.821 61.73 70.412M2143.16 391.873c0 39.006 32.38 74.972 85.51 74.972 36.93 0 60.72-17.224 73.36-36.98 0 9.625 1.02 23.302 2.53 29.888h61.73c-1.51-8.612-3.03-26.342-3.03-39.512V297.652c0-50.15-29.35-94.727-108.28-94.727-66.79 0-102.71 43.057-106.76 82.063l59.7 12.664c2.03-21.782 18.22-40.525 47.56-40.525 28.34 0 42 14.69 42 32.42 0 8.612-4.55 15.704-18.72 17.73l-61.22 9.118c-41.49 6.079-74.38 30.9-74.38 75.478m99.68 24.822c-21.76 0-32.39-14.184-32.39-28.874 0-19.25 13.66-28.875 30.87-31.407l56.16-8.612v11.144c0 44.072-26.31 57.749-54.64 57.749M2409.84 390.353c3.03 28.368 28.84 76.998 103.72 76.998 65.27 0 96.64-41.538 96.64-82.063 0-36.473-24.79-66.36-73.87-76.492l-35.42-7.598c-13.66-2.533-22.76-10.131-22.76-22.289 0-14.184 14.16-24.821 31.87-24.821 28.34 0 38.96 18.742 40.99 33.433l56.16-12.664c-3.04-26.848-26.82-71.932-97.65-71.932-53.64 0-93.1 36.979-93.1 81.556 0 34.953 21.75 63.828 69.82 74.465l32.89 7.599c19.23 4.052 26.82 13.171 26.82 24.315 0 13.171-10.63 24.822-32.89 24.822-29.35 0-44.02-18.237-45.54-37.993zM2712.4 306.77c1.52-22.795 20.75-49.137 55.66-49.137 38.45 0 54.65 24.316 55.66 49.137zm117.9 64.841c-8.1 22.288-25.3 37.992-56.67 37.992-33.4 0-61.23-23.809-62.74-56.735h178.1c0-1.014 1.01-11.145 1.01-20.77 0-80.037-46.04-129.173-122.95-129.173-63.75 0-122.45 51.669-122.45 131.2 0 84.089 60.21 133.226 128.52 133.226 61.22 0 100.69-35.966 113.34-79.024z"/><path fill="#3ecf8e" d="M60.45 376.395c-14.608 0-26.45-11.839-26.45-26.442a26.32 26.32 0 0 1 5.194-15.74l10.187-14.3L280.276 8.145A10.06 10.06 0 0 1 288.424 4c5.565 0 10.076 4.51 10.076 10.073v362.322z"/><path fill="url(#a)" d="M536.55 241.854c14.608 0 26.45 11.839 26.45 26.443 0 5.896-1.93 11.341-5.194 15.739l-10.187 14.3-230.895 311.768a10.07 10.07 0 0 1-8.148 4.145c-5.565 0-10.076-4.51-10.076-10.073V241.854z"/><path fill="url(#b)" fill-opacity=".2" d="M536.55 241.854c14.608 0 26.45 11.839 26.45 26.443 0 5.896-1.93 11.341-5.194 15.739l-10.187 14.3-230.895 311.768a10.07 10.07 0 0 1-8.148 4.145c-5.565 0-10.076-4.51-10.076-10.073V241.854z"/><defs><linearGradient id="a" x1="298.5" x2="495.646" y1="318.891" y2="395.82" gradientUnits="userSpaceOnUse"><stop/><stop offset="1" stop-color="#3ecf8e"/></linearGradient><linearGradient id="b" x1="212.852" x2="311.265" y1="192.853" y2="365.218" gradientUnits="userSpaceOnUse"><stop/><stop offset="1" stop-opacity="0"/></linearGradient></defs></svg>

<svg width="2978" height="628" viewBox="0 0 2978 628" fill="none" xmlns="http://www.w3.org/2000/svg">
<path d="M717 390.353C720.036 418.721 745.841 467.351 820.725 467.351C885.995 467.351 917.366 425.813 917.366 385.288C917.366 348.815 892.573 318.928 843.493 308.796L808.075 301.198C794.414 298.665 785.306 291.067 785.306 278.909C785.306 264.725 799.474 254.088 817.183 254.088C845.517 254.088 856.143 272.83 858.167 287.521L914.33 274.857C911.294 248.009 887.513 202.925 816.677 202.925C763.044 202.925 723.578 239.904 723.578 284.481C723.578 319.434 745.335 348.309 793.402 358.946L826.29 366.545C845.517 370.597 853.107 379.716 853.107 390.86C853.107 404.031 842.482 415.682 820.219 415.682C790.872 415.682 776.199 397.445 774.681 377.689L717 390.353Z" fill="#1F1F1F"/>
<path d="M1132.42 459.753H1196.68C1195.67 451.141 1194.15 433.918 1194.15 414.668V210.523H1126.85V355.4C1126.85 384.275 1109.65 404.537 1079.8 404.537C1048.43 404.537 1034.26 382.248 1034.26 354.387V210.523H966.967V368.065C966.967 422.267 1001.37 466.338 1061.58 466.338C1087.89 466.338 1116.74 456.207 1130.4 432.905C1130.4 443.036 1131.41 454.687 1132.42 459.753Z" fill="#1F1F1F"/>
<path d="M1333.26 556V435.438C1345.4 452.154 1370.7 465.832 1405.11 465.832C1475.44 465.832 1522.49 410.109 1522.49 334.631C1522.49 260.673 1480.5 204.951 1407.64 204.951C1370.2 204.951 1342.37 221.667 1331.24 240.917V210.523H1265.97V556H1333.26ZM1456.21 335.138C1456.21 379.716 1428.89 405.55 1394.48 405.55C1360.08 405.55 1332.25 379.209 1332.25 335.138C1332.25 291.067 1360.08 265.232 1394.48 265.232C1428.89 265.232 1456.21 291.067 1456.21 335.138Z" fill="#1F1F1F"/>
<path d="M1560.6 391.873C1560.6 430.879 1592.98 466.845 1646.11 466.845C1683.04 466.845 1706.82 449.621 1719.47 429.865C1719.47 439.49 1720.48 453.167 1722 459.753H1783.73C1782.21 451.141 1780.7 433.411 1780.7 420.241V297.652C1780.7 247.502 1751.35 202.925 1672.42 202.925C1605.63 202.925 1569.7 245.982 1565.66 284.988L1625.36 297.652C1627.39 275.87 1643.58 257.127 1672.92 257.127C1701.26 257.127 1714.92 271.817 1714.92 289.547C1714.92 298.159 1710.37 305.251 1696.2 307.277L1634.98 316.395C1593.49 322.474 1560.6 347.295 1560.6 391.873ZM1660.27 416.695C1638.52 416.695 1627.89 402.511 1627.89 387.821C1627.89 368.571 1641.55 358.946 1658.76 356.414L1714.92 347.802V358.946C1714.92 403.018 1688.61 416.695 1660.27 416.695Z" fill="#1F1F1F"/>
<path d="M1913.8 459.753V429.359C1926.95 450.635 1953.26 465.832 1987.67 465.832C2058.51 465.832 2105.06 409.603 2105.06 334.125C2105.06 260.166 2063.06 203.938 1990.2 203.938C1953.26 203.938 1925.94 220.148 1914.81 237.877V93H1848.53V459.753H1913.8ZM2037.76 334.631C2037.76 380.222 2010.44 405.55 1976.03 405.55C1942.13 405.55 1913.8 379.716 1913.8 334.631C1913.8 289.04 1942.13 264.219 1976.03 264.219C2010.44 264.219 2037.76 289.04 2037.76 334.631Z" fill="#1F1F1F"/>
<path d="M2143.16 391.873C2143.16 430.879 2175.54 466.845 2228.67 466.845C2265.6 466.845 2289.39 449.621 2302.03 429.865C2302.03 439.49 2303.05 453.167 2304.56 459.753H2366.29C2364.78 451.141 2363.26 433.411 2363.26 420.241V297.652C2363.26 247.502 2333.91 202.925 2254.98 202.925C2188.19 202.925 2152.27 245.982 2148.22 284.988L2207.92 297.652C2209.95 275.87 2226.14 257.127 2255.48 257.127C2283.82 257.127 2297.48 271.817 2297.48 289.547C2297.48 298.159 2292.93 305.251 2278.76 307.277L2217.54 316.395C2176.05 322.474 2143.16 347.295 2143.16 391.873ZM2242.84 416.695C2221.08 416.695 2210.45 402.511 2210.45 387.821C2210.45 368.571 2224.11 358.946 2241.32 356.414L2297.48 347.802V358.946C2297.48 403.018 2271.17 416.695 2242.84 416.695Z" fill="#1F1F1F"/>
<path d="M2409.84 390.353C2412.87 418.721 2438.68 467.351 2513.56 467.351C2578.83 467.351 2610.2 425.813 2610.2 385.288C2610.2 348.815 2585.41 318.928 2536.33 308.796L2500.91 301.198C2487.25 298.665 2478.15 291.067 2478.15 278.909C2478.15 264.725 2492.31 254.088 2510.02 254.088C2538.36 254.088 2548.98 272.83 2551.01 287.521L2607.17 274.857C2604.13 248.009 2580.35 202.925 2509.52 202.925C2455.88 202.925 2416.42 239.904 2416.42 284.481C2416.42 319.434 2438.17 348.309 2486.24 358.946L2519.13 366.545C2538.36 370.597 2545.95 379.716 2545.95 390.86C2545.95 404.031 2535.32 415.682 2513.06 415.682C2483.71 415.682 2469.04 397.445 2467.52 377.689L2409.84 390.353Z" fill="#1F1F1F"/>
<path d="M2712.4 306.77C2713.92 283.975 2733.15 257.633 2768.06 257.633C2806.51 257.633 2822.71 281.949 2823.72 306.77H2712.4ZM2830.3 371.611C2822.2 393.899 2805 409.603 2773.63 409.603C2740.23 409.603 2712.4 385.794 2710.89 352.868H2888.99C2888.99 351.854 2890 341.723 2890 332.098C2890 252.061 2843.96 202.925 2767.05 202.925C2703.3 202.925 2644.6 254.594 2644.6 334.125C2644.6 418.214 2704.81 467.351 2773.12 467.351C2834.34 467.351 2873.81 431.385 2886.46 388.327L2830.3 371.611Z" fill="#1F1F1F"/>
<path d="M60.45 376.395C45.8421 376.395 34 364.556 34 349.953C34 344.056 35.9305 338.611 39.194 334.213L49.3806 319.913L280.276 8.14532C282.108 5.63276 285.075 4 288.424 4C293.989 4 298.5 8.50994 298.5 14.0732V15.2065L298.5 376.395H60.45Z" fill="#3ECF8E"/>
<path d="M536.55 241.854C551.158 241.854 563 253.693 563 268.297C563 274.193 561.07 279.638 557.806 284.036L547.619 298.336L316.724 610.104C314.891 612.616 311.925 614.249 308.576 614.249C303.011 614.249 298.5 609.739 298.5 604.176L298.5 603.043L298.5 241.854L536.55 241.854Z" fill="url(#paint0_linear)"/>
<path d="M536.55 241.854C551.158 241.854 563 253.693 563 268.297C563 274.193 561.07 279.638 557.806 284.036L547.619 298.336L316.724 610.104C314.891 612.616 311.925 614.249 308.576 614.249C303.011 614.249 298.5 609.739 298.5 604.176L298.5 603.043L298.5 241.854L536.55 241.854Z" fill="url(#paint1_linear)" fill-opacity="0.2"/>
<defs>
<linearGradient id="paint0_linear" x1="298.5" y1="318.891" x2="495.646" y2="395.82" gradientUnits="userSpaceOnUse">
<stop stopColor="#249361"/>
<stop offset="1" stop-color="#3ECF8E"/>
</linearGradient>
<linearGradient id="paint1_linear" x1="212.852" y1="192.853" x2="311.265" y2="365.218" gradientUnits="userSpaceOnUse">
<stop/>
<stop offset="1" stop-opacity="0"/>
</linearGradient>
</defs>
</svg>
